X:146
T:Intrepid, The
M:6/8
L:1/8
B:Thompson's Compleat Collection of 200 Favourite Country Dances, vol. 1 (London, 1757)
Z:Transcribed and edited by Flynn Titford-Mock, 2007
Z:abc's:AK/Fiddler's Companion
K:A
f|ecA ABc|d2c B2A|ecA ABA|B2c d2f|ecA ABc|d2c B2A|c/d/ec B/c/dB|A2A A2:|
|:e|fdf ece|fdf ece|fga ecA|B2c d2f|efg agf|edc B2A|c/d/ec B/c/dB|A2A A2:|

